X:21
T:A Penny Wise, A Pound Foolish
C:Terence "Cuz" Teahan
B:Terry "Cuz" Teahan "Sliabh Luachra on Parade" 1980
Z:Patrick Cavanagh
M:6/8
L:1/8
R:Jig
K:G
| BEB dEc | BeB dBA | Bdg bge | dfa gfd | 
BGG DGG | BeB dBA | BdB AFE | DFA GED :| 
| gfg dBd | gfg agf | faf dBe | dfa fed | 
bgb afa | gfe dBd | efa ged | ecc c3 :|| 

